images/logo.svg

<svg height="46" viewBox="0 0 46 46" width="46" xmlns="http://www.w3.org/2000/svg"><g fill="none" fill-rule="evenodd"><path d="m23 1.73205081 18.4185843 10.63397459v21.2679492l-18.4185843 10.6339746-18.41858429-10.6339746v-21.2679492z" stroke="#df853d" stroke-width="3" transform="matrix(0 1 -1 0 46 0)"/><path d="m23 8.94337567 12.1733938 7.02831213v14.0566244l-12.1733938 7.0283121-12.1733938-7.0283121v-14.0566244z" stroke="#df853d" stroke-width="2.5" transform="matrix(0 1 -1 0 46 0)"/><path d="m15.7782229 27.5 1.0684632-2.4932432 2.0554247-4.8322255 2.0545534 4.8322255 1.0553533 2.4932432h1.4879825l-3.7887837-9h-1.3634377l-3.8477786 9zm9.9641194 0v-4.5608108l4.0801802 4.5608108h1.6774775l-4.3072072-4.7067568 3.6576577-4.2932432h-1.3306307l-3.7774775 4.427027v-4.427027h-1.2423423v9z" fill="#323232" fill-rule="nonzero" stroke="#373737" stroke-width=".3"/></g></svg>

<?xml version="1.0" encoding="UTF-8"?>
<svg width="46px" height="46px" viewBox="0 0 46 46" version="1.1" xmlns="http://www.w3.org/2000/svg" xmlns:xlink="http://www.w3.org/1999/xlink">
    <title>Group 15</title>
    <g id="Page-1" stroke="none" stroke-width="1" fill="none" fill-rule="evenodd">
        <g id="Artboard" transform="translate(-45.000000, -42.000000)" stroke="#DF853D">
            <g id="Group-15" transform="translate(45.000000, 42.000000)">
                <path d="M23,1.73205081 L41.4185843,12.3660254 L41.4185843,33.6339746 L23,44.2679492 L4.58141571,33.6339746 L4.58141571,12.3660254 L23,1.73205081 Z" id="Polygon" stroke-width="3" transform="translate(23.000000, 23.000000) rotate(90.000000) translate(-23.000000, -23.000000) "></path>
                <path d="M23,8.94337567 L35.1733938,15.9716878 L35.1733938,30.0283122 L23,37.0566243 L10.8266062,30.0283122 L10.8266062,15.9716878 L23,8.94337567 Z" id="Polygon" stroke-width="2.5" transform="translate(23.000000, 23.000000) rotate(90.000000) translate(-23.000000, -23.000000) "></path>
                <path d="M15.7782229,27.5 L16.8466861,25.0067568 L18.9021108,20.1745313 L20.9566642,25.0067568 L22.0120175,27.5 L23.5,27.5 L19.7112163,18.5 L18.3477786,18.5 L14.5,27.5 L15.7782229,27.5 Z M25.7423423,27.5 L25.7423423,22.9391892 L29.8225225,27.5 L31.5,27.5 L27.1927928,22.7932432 L30.8504505,18.5 L29.5198198,18.5 L25.7423423,22.927027 L25.7423423,18.5 L24.5,18.5 L24.5,27.5 L25.7423423,27.5 Z" id="AK" stroke-width="0.3" fill="#DF853D" fill-rule="nonzero"></path>
            </g>
        </g>
    </g>
</svg>
